svg/part/shirt_line.svg

<?xml version="1.0" encoding="UTF-8"?>
<svg width="24px" height="24px" viewBox="0 0 24 24" version="1.1" xmlns="http://www.w3.org/2000/svg" xmlns:xlink="http://www.w3.org/1999/xlink">
    <title>shirt_line</title>
    <g id="Icon" stroke="none" stroke-width="1" fill="none" fill-rule="evenodd">
        <g id="Part" transform="translate(-432.000000, -96.000000)" fill-rule="nonzero">
            <g id="shirt_line" transform="translate(432.000000, 96.000000)">
                <path d="M24,0 L24,24 L0,24 L0,0 L24,0 Z M12.5934901,23.257841 L12.5819402,23.2595131 L12.5108777,23.2950439 L12.4918791,23.2987469 L12.4918791,23.2987469 L12.4767152,23.2950439 L12.4056548,23.2595131 C12.3958229,23.2563662 12.3870493,23.2590235 12.3821421,23.2649074 L12.3780323,23.275831 L12.360941,23.7031097 L12.3658947,23.7234994 L12.3769048,23.7357139 L12.4804777,23.8096931 L12.4953491,23.8136134 L12.4953491,23.8136134 L12.5071152,23.8096931 L12.6106902,23.7357139 L12.6232938,23.7196733 L12.6232938,23.7196733 L12.6266527,23.7031097 L12.609561,23.275831 C12.6075724,23.2657013 12.6010112,23.2592993 12.5934901,23.257841 L12.5934901,23.257841 Z M12.8583906,23.1452862 L12.8445485,23.1473072 L12.6598443,23.2396597 L12.6498822,23.2499052 L12.6498822,23.2499052 L12.6471943,23.2611114 L12.6650943,23.6906389 L12.6699349,23.7034178 L12.6699349,23.7034178 L12.678386,23.7104931 L12.8793402,23.8032389 C12.8914285,23.8068999 12.9022333,23.8029875 12.9078286,23.7952264 L12.9118235,23.7811639 L12.8776777,23.1665331 C12.8752882,23.1545897 12.8674102,23.1470016 12.8583906,23.1452862 L12.8583906,23.1452862 Z M12.1430473,23.1473072 C12.1332178,23.1423925 12.1221763,23.1452606 12.1156365,23.1525954 L12.1099173,23.1665331 L12.0757714,23.7811639 C12.0751323,23.7926639 12.0828099,23.8018602 12.0926481,23.8045676 L12.108256,23.8032389 L12.3092106,23.7104931 L12.3186497,23.7024347 L12.3186497,23.7024347 L12.3225043,23.6906389 L12.340401,23.2611114 L12.337245,23.2485176 L12.337245,23.2485176 L12.3277531,23.2396597 L12.1430473,23.1473072 Z" id="MingCute"></path>
                <path d="M8.02389719,3.00144047 L15.847,3.00004 C15.9763,3.00004 16.105375,3.00159812 16.2306812,3.02850391 L16.3546,3.06474 C17.2609474,3.30121263 17.9035175,4.15537645 17.843486,5.12099788 L17.8269,5.28288 L17.6692,6.38657 L18.7276,6.65116 C20.0050348,6.97052348 20.9177769,8.08228371 20.994731,9.38309194 L21,9.56159 L21,18 C21,19.597725 19.7511226,20.903664 18.1762773,20.9949075 L18,21 L6,21 C4.40232321,21 3.09633941,19.7511226 3.00509271,18.1762773 L3,18 L3,9.56159 C3,8.24484217 3.85719236,7.08971741 5.10049914,6.69956445 L5.27239,6.65116 L6.33078,6.38657 L6.17311,5.28288 C6.03361947,4.30643684 6.62120828,3.4133272 7.49683115,3.10978467 L7.64536,3.06474 C7.76779,3.0182925 7.89513063,3.0051225 8.02389719,3.00144047 Z M17.3849,8.37703 L17.0881,10.4547 C16.9433,11.4683 15.8481,12.0421 14.9323,11.5842 L13,10.6181 L13,19 L18,19 C18.5523,19 19,18.5523 19,18 L19,9.56159 C19,9.10272 18.6877,8.70274 18.2425,8.59145 L17.3849,8.37703 Z M6.61513,8.37703 L5.75746,8.59145 C5.34939667,8.69346583 5.05297264,9.03806146 5.00640241,9.44823236 L5,9.56159 L5,18 C5,18.51285 5.38604429,18.9355092 5.88337975,18.9932725 L6,19 L11,19 L11,10.6181 L9.06769,11.5842 C8.19175522,12.0221913 7.15163556,11.5162454 6.93612389,10.5843659 L6.91194,10.4547 L6.61513,8.37703 Z M17,14 C17.5523,14 18,14.4478 18,15 C18,15.5523 17.5523,16 17,16 L16,16 C15.4477,16 15,15.5523 15,15 C15,14.4478 15.4477,14 16,14 L17,14 Z M15.7092,5.96426 L13.5536,8.65881 L15.2063,9.48513 L15.7092,5.96426 Z M8.29076,5.96426 L8.79374,9.48513 L10.4464,8.65881 L8.29076,5.96426 Z M13.9194,5.00004 L10.0806,5.00004 L12,7.39926 L13.9194,5.00004 Z" id="形状" fill="#09244B"></path>
            </g>
        </g>
    </g>
</svg>

<svg xmlns="http://www.w3.org/2000/svg" width="24" height="24"><g fill="none" fill-rule="nonzero"><path d="M24 0v24H0V0h24ZM12.593 23.258l-.011.002-.071.035-.02.004-.014-.004-.071-.035c-.01-.004-.019-.001-.024.005l-.004.01-.017.428.005.02.01.013.104.074.015.004.012-.004.104-.074.012-.016.004-.017-.017-.427c-.002-.01-.009-.017-.017-.018Zm.265-.113-.013.002-.185.093-.01.01-.003.011.018.43.005.012.008.007.201.093c.012.004.023 0 .029-.008l.004-.014-.034-.614c-.003-.012-.01-.02-.02-.022Zm-.715.002a.023.023 0 0 0-.027.006l-.006.014-.034.614c0 .012.007.02.017.024l.015-.002.201-.093.01-.008.004-.011.017-.43-.003-.012-.01-.01-.184-.092Z"/><path fill="#09244B" d="M8.024 3.001 15.847 3c.13 0 .258.002.384.029l.124.036a2.002 2.002 0 0 1 1.488 2.056l-.016.162-.158 1.104 1.059.264a3 3 0 0 1 2.267 2.732l.005.179V18a3 3 0 0 1-2.824 2.995L18 21H6a3 3 0 0 1-2.995-2.824L3 18V9.562A3 3 0 0 1 5.1 6.7l.172-.049 1.059-.264-.158-1.104A2.001 2.001 0 0 1 7.497 3.11l.148-.045c.123-.047.25-.06.379-.064Zm9.36 5.376-.296 2.078a1.5 1.5 0 0 1-2.156 1.13L13 10.617V19h5a1 1 0 0 0 1-1V9.562a1 1 0 0 0-.758-.97l-.857-.215Zm-10.769 0-.858.214a1 1 0 0 0-.75.857L5 9.562V18a1 1 0 0 0 .883.993L6 19h5v-8.382l-1.932.966a1.5 1.5 0 0 1-2.132-1l-.024-.13-.297-2.077ZM17 14a1 1 0 0 1 0 2h-1a1 1 0 1 1 0-2h1Zm-1.29-8.036L13.553 8.66l1.652.826.503-3.52Zm-7.42 0 .504 3.521 1.652-.826-2.155-2.695ZM13.92 5h-3.84L12 7.4 13.92 5Z"/></g></svg>
